X: 2
T: Clangat plebs flores / Sicut lilium
N: Derived from Reg2004-Clangat_plebs_flores__Sicut_lilium.krn
C: Johannes Regis
%%abc-version 2.0
%%abcx-abcm2ps-target-version 5.9.1 (29 Sep 2008)
%%abc-creator hum2abc beta
%%abcx-conversion-date 2019/02/17 07:31:25
%%abc-edited-by Jesse Rodin
%%abc-edited-by Jesse Rodin 8/13/2013
%%abcx-initial-encoding-date 2013/08/13/
%%humdrum-veritas 632259408
%%humdrum-veritas-data 1924256119
%%linebreak <none>
%%barnumbers 0
L: 1/4
M: 3/1
Q: 1/2=120
V: 1 clef=treble
V: 2 clef=treble-8
V: 3 clef=treble-8
V: 4 clef=bass
V: 5 clef=bass
K: C
[V:1] D6E2F4 | 
[V:2] d8d4 | 
[V:3] z12 | 
[V:4] D,12- | 
[V:5] z12 | 
[V:1] F4E4C2D2 | 
[V:2] d4c2d2e4 | 
[V:3] z12 | 
[V:4] D,4A,8 | 
[V:5] z12 | 
[V:1] E4A6G2 | 
[V:2] c8d4 | 
[V:3] z12 | 
[V:4] A,4F,8 | 
[V:5] z12 | 
[V:1] G6^F2F2E2 | 
[V:2] B4A8 | 
[V:3] z12 | 
[V:4] G,4D,8 | 
[V:5] z12 | 
[V:1] G4G6E2 | 
[V:2] G8c4 | 
[V:3] z12 | 
[V:4] E,4C,8 | 
[V:5] z12 | 
[V:1] F4E6C2 | 
[V:2] A2B2c6A2 | 
[V:3] z12 | 
[V:4] D,4A,,4C,4 | 
[V:5] z12 | 
[V:1] D6B,2G,2A,B, | 
[V:2] B4G3AB2c2 | 
[V:3] z12 | 
[V:4] G,,4z2G,,4F,,2 | 
[V:5] z12 | 
[V:1] CDE3DD4^C2 | 
[V:2] A4G2F2E4 | 
[V:3] z12 | 
[V:4] A,,4C,2D,2A,,4 | 
[V:5] z12 | 
[V:1] D4z4A,4 | 
[V:2] D12 | 
[V:3] z12 | 
[V:4] A,8F,4 | 
[V:5] z12 | 
[V:1] A,4B,4C2D2 | 
[V:2] z4z4A4 | 
[V:3] z12 | 
[V:4] D,6C,B,,A,,4 | 
[V:5] z12 | 
[V:1] E4D2CB,A,4 | 
[V:2] A4B4c2d2 | 
[V:3] z12 | 
[V:4] A,,4z4z4 | 
[V:5] z12 | 
[V:1] z2C2D2E2F4 | 
[V:2] e4d2cBA2d2- | 
[V:3] z12 | 
[V:4] z12 | 
[V:5] z12 | 
[V:1] E3FG2A2GFE2 | 
[V:2] d2c2B2A2B2G2 | 
[V:3] z12 | 
[V:4] z12 | 
[V:5] z12 | 
[V:1] C2E4D4^C2 | 
[V:2] A4F2D2E4 | 
[V:3] z12 | 
[V:4] z12 | 
[V:5] z12 | 
[V:1] D12 | 
[V:2] D4z4z4 | 
[V:3] z12 | 
[V:4] A,6G,2F,4 | 
[V:5] D,12 | 
[V:1] z12 | 
[V:2] z12 | 
[V:3] z12 | 
[V:4] F,4E,8 | 
[V:5] D,4E,4C,4 | 
[V:1] z12 | 
[V:2] z12 | 
[V:3] z12 | 
[V:4] E,4A,6G,2 | 
[V:5] A,,8C,4 | 
[V:1] z12 | 
[V:2] z12 | 
[V:3] z12 | 
[V:4] G,6^F,2F,2E,2 | 
[V:5] B,,4A,,8 | 
[V:1] z12 | 
[V:2] z12 | 
[V:3] z12 | 
[V:4] G,4G,6E,2 | 
[V:5] G,,8C,4 | 
[V:1] z12 | 
[V:2] z12 | 
[V:3] z12 | 
[V:4] F,4E,4E,2C,2 | 
[V:5] D,4E,4C,2A,,2 | 
[V:1] z12 | 
[V:2] z12 | 
[V:3] z12 | 
[V:4] D,3E,F,2G,2F,2E,2- | 
[V:5] B,,4A,,2G,,2A,,2G,,2 | 
[V:1] z12 | 
[V:2] z12 | 
[V:3] z12 | 
[V:4] E,2E,2F,2D,4^C,2 | 
[V:5] E,,2G,,2A,,2F,,2E,,4 | 
[V:1] D4D4F4 | 
[V:2] A8d4 | 
[V:3] z12 | 
[V:4] D,12 | 
[V:5] D,,12 | 
[V:1] F4E2G4F2 | 
[V:2] d4c4B2d2- | 
[V:3] z12 | 
[V:4] z12 | 
[V:5] z12 | 
[V:1] E4D4z2C2 | 
[V:2] d2c2B4A4 | 
[V:3] z12 | 
[V:4] z12 | 
[V:5] z12 | 
[V:1] D2B,2A,2D2E2C2- | 
[V:2] z2G2A2F2E4 | 
[V:3] z12 | 
[V:4] z12 | 
[V:5] z12 | 
[V:1] C2F2E2D2E2G2- | 
[V:2] A3Bc2d3cB2 | 
[V:3] z12 | 
[V:4] z12 | 
[V:5] z12 | 
[V:1] GFE2D2E4E2 | 
[V:2] A2c2B2c2A4 | 
[V:3] z12 | 
[V:4] z12 | 
[V:5] z12 | 
[V:1] F2GFEDD4^C2 | 
[V:2] A2G4F2E4 | 
[V:3] z12 | 
[V:4] z12 | 
[V:5] z12 | 
[V:1] D4z4D4 | 
[V:2] D4z4A4 | 
[V:3] z12 | 
[V:4] A,6G,2F,4 | 
[V:5] D,12 | 
[V:1] E2F2G6F2 | 
[V:2] c8B4 | 
[V:3] G12- | 
[V:4] E,8D,4 | 
[V:5] C,8G,,4- | 
[V:1] D4D4z2D2 | 
[V:2] B4G2B4B2 | 
[V:3] G12 | 
[V:4] D,6G,4F,2 | 
[V:5] G,,12 | 
[V:1] D2E2F4F4 | 
[V:2] A4d4d4 | 
[V:3] A12 | 
[V:4] F,4D,2E,2F,4 | 
[V:5] D,12 | 
[V:1] G8E4- | 
[V:2] G8G4 | 
[V:3] c12- | 
[V:4] E,8E,4 | 
[V:5] C,12- | 
[V:1] E4E8 | 
[V:2] G4A2G2E4 | 
[V:3] c12 | 
[V:4] E,8A,4 | 
[V:5] C,4A,,8 | 
[V:1] z4A8 | 
[V:2] F8C4 | 
[V:3] c12 | 
[V:4] A,8F,4- | 
[V:5] F,,12- | 
[V:1] A4G2F2E4 | 
[V:2] z2F2G2A2G2E2 | 
[V:3] c12 | 
[V:4] F,4E,4C,4 | 
[V:5] F,,4C,8 | 
[V:1] D8D4 | 
[V:2] G8G4 | 
[V:3] B12- | 
[V:4] D,8z4 | 
[V:5] G,,12- | 
[V:1] D4G6F2 | 
[V:2] z4d4d4 | 
[V:3] B12 | 
[V:4] G,8G,4 | 
[V:5] G,,12 | 
[V:1] F4D2F3ED2 | 
[V:2] d8d4 | 
[V:3] A12 | 
[V:4] A,4F,8 | 
[V:5] D,12 | 
[V:1] C8z4 | 
[V:2] e8c4 | 
[V:3] A12- | 
[V:4] E,12 | 
[V:5] A,,12- | 
[V:1] E6E2E2C2 | 
[V:2] c4A2c3de2- | 
[V:3] A12 | 
[V:4] E,8C,4 | 
[V:5] A,,12 | 
[V:1] B,2D3CD2E2B,2- | 
[V:2] e2d2B2G4F2 | 
[V:3] z12 | 
[V:4] G,,4B,,4C,2D,2 | 
[V:5] z12 | 
[V:1] B,A,B,2C2A,4^G,2 | 
[V:2] G4A4z4 | 
[V:3] z12 | 
[V:4] E,4A,,2C,2B,,4 | 
[V:5] z12 | 
[V:1] A,4z4E4 | 
[V:2] A4A2G2E4 | 
[V:3] z12 | 
[V:4] A,,12 | 
[V:5] z12 | 
[V:1] E2E2D4C4 | 
[V:2] G2A2B4A4 | 
[V:3] z12 | 
[V:4] z4z4A,4 | 
[V:5] z12 | 
[V:1] z2F3EE2F2A2- | 
[V:2] z12 | 
[V:3] z12 | 
[V:4] A,2A,2G,4F,4 | 
[V:5] z12 | 
[V:1] A2F2G4C4 | 
[V:2] z12 | 
[V:3] z12 | 
[V:4] z2F,3E,E,2F,2A,2- | 
[V:5] z12 | 
[V:1] z2D4D2EFG2 | 
[V:2] z12 | 
[V:3] z12 | 
[V:4] A,2F,2G,4C,4 | 
[V:5] z12 | 
[V:1] E2F2EDD4^C2 | 
[V:2] z12 | 
[V:3] z12 | 
[V:4] z2D,2C,2D,2E,4 | 
[V:5] z12 | 
[V:1] D4z4F3E | 
[V:2] d4d4d4 | 
[V:3] z12 | 
[V:4] D,8z4 | 
[V:5] z12 | 
[V:1] F2A3GF2E2D2 | 
[V:2] d3cB2A2G2B2 | 
[V:3] z12 | 
[V:4] z12 | 
[V:5] z12 | 
[V:1] E2E2G2F2E2G2 | 
[V:2] A2c2B2A2c3B | 
[V:3] z12 | 
[V:4] z12 | 
[V:5] z12 | 
[V:1] F2E4D4^C2 | 
[V:2] A2G2A2F2E4 | 
[V:3] z12 | 
[V:4] z12 | 
[V:5] z12 | 
[V:1] D8z2D2 | 
[V:2] D4z2G2F2G2 | 
[V:3] z12 | 
[V:4] z12 | 
[V:5] z12 | 
[V:1] C2D2E2DCB,4 | 
[V:2] A2GFE4z2G2 | 
[V:3] z12 | 
[V:4] z12 | 
[V:5] z12 | 
[V:1] z4E3FG2E2 | 
[V:2] A3Bc2A2B2c2 | 
[V:3] z12 | 
[V:4] z12 | 
[V:5] z12 | 
[V:1] F2A4GFE4 | 
[V:2] d2cBA4z2c2 | 
[V:3] z12 | 
[V:4] z12 | 
[V:5] z12 | 
[V:1] z2E2D2C2B,2E2- | 
[V:2] d2c2B2e4c2 | 
[V:3] z12 | 
[V:4] z12 | 
[V:5] z12 | 
[V:1] EFG3FF2E4 | 
[V:2] d2B2A2d4^c2 | 
[V:3] z12 | 
[V:4] z12 | 
[V:5] z12 | 
[V:1] D4z2C2D2E2 | 
[V:2] d4z4z4 | 
[V:3] A12- | 
[V:4] A,3G,F,2E,2D,2A,,2 | 
[V:5] D,6A,,2D,2C,2 | 
[V:1] F2E4A3GF2 | 
[V:2] z12 | 
[V:3] A12 | 
[V:4] z2A,,2C,3D,E,2D,2 | 
[V:5] D,2C,2A,,3B,,C,2D,2 | 
[V:1] E2F2E2D2F2E2 | 
[V:2] z12 | 
[V:3] A12 | 
[V:4] A,,3B,,C,2D,4C,2 | 
[V:5] C,2D,2A,,2F,,2D,,2A,,2 | 
[V:1] C2D2E2D2z2D2 | 
[V:2] z12 | 
[V:3] G12- | 
[V:4] E,2D,2C,2B,,2D,4 | 
[V:5] C,2B,,2C,2G,,4G,,2 | 
[V:1] D2E2F3ED2D2 | 
[V:2] z4z4d4 | 
[V:3] G4F8 | 
[V:4] z4A,8 | 
[V:5] B,,2C,2D,4z2D,2 | 
[V:1] C4z2E2E2E2 | 
[V:2] e2dcB2c2B3A | 
[V:3] E4G8 | 
[V:4] A,4G,4E,4 | 
[V:5] A,,4E,8 | 
[V:1] C2E4E3DC2 | 
[V:2] A2GFE4C4 | 
[V:3] A8A4 | 
[V:4] E,4C,4E,2F,2 | 
[V:5] A,,8A,,4 | 
[V:1] B,2G,2A,3B,CDE2 | 
[V:2] D2G2F2A4A2 | 
[V:3] z12 | 
[V:4] G,2D,4F,2E,4 | 
[V:5] G,,4D,4A,,2C,2 | 
[V:1] F2E3DD4^C2 | 
[V:2] F2G4F2E4 | 
[V:3] z12 | 
[V:4] D,2C,2E,2A,4A,2 | 
[V:5] D,2E,2C,2D,2A,,4 | 
[V:1] D4F4E2D2 | 
[V:2] D4A2A4F2 | 
[V:3] z12 | 
[V:4] F,4D,4C,2D,2 | 
[V:5] D,,4z4z4 | 
[V:1] ^C12 ||  
[V:2] E12 ||  
[V:3] A12 ||  
[V:4] A,,12 & E,12 ||  
[V:5] A,,12 ||  
[V:1]  [K:C] [K:clef=treble][M:2/1]E6F2 | 
[V:2]  [K:C] [K:clef=treble-8][M:2/1]A8 | 
[V:3]  [K:C] [K:clef=treble-8][M:2/1]z8 | 
[V:4]  [K:C] [K:clef=bass][M:2/1]z8 | 
[V:5]  [K:C] [K:clef=bass][M:2/1]z8 | 
[V:1] G4G4 | 
[V:2] B6c2 | 
[V:3] z8 | 
[V:4] z8 | 
[V:5] z8 | 
[V:1] F4E4 | 
[V:2] d4c4 | 
[V:3] z8 | 
[V:4] z8 | 
[V:5] z8 | 
[V:1] F6E2 | 
[V:2] d8 | 
[V:3] z8 | 
[V:4] z8 | 
[V:5] z8 | 
[V:1] E8 | 
[V:2] ^c6d2 | 
[V:3] A8- | 
[V:4] E,8 | 
[V:5] A,,6B,,2 | 
[V:1] z4E4 | 
[V:2] e4e4 | 
[V:3] A8- | 
[V:4] E,4E,4 | 
[V:5] C,4C,4 | 
[V:1] A,4D4 | 
[V:2] d4d4 | 
[V:3] A8- | 
[V:4] F,4F,4 | 
[V:5] D,4D,4 | 
[V:1] E4C2E2- | 
[V:2] c6BA | 
[V:3] A8 | 
[V:4] E,8 | 
[V:5] A,,8 | 
[V:1] EDC2B,4 | 
[V:2] G2A4G2 | 
[V:3] z8 | 
[V:4] z8 | 
[V:5] z8 | 
[V:1] A,4C4 | 
[V:2] A2F2E4 | 
[V:3] z8 | 
[V:4] z8 | 
[V:5] z8 | 
[V:1] D3CD2F2 | 
[V:2] F2G2_B2A2- | 
[V:3] z8 | 
[V:4] z8 | 
[V:5] z8 | 
[V:1] E2D4^C2 | 
[V:2] A2F2E4 | 
[V:3] z8 | 
[V:4] z8 | 
[V:5] z8 | 
[V:1] D8 | 
[V:2] D8 | 
[V:3] A8 | 
[V:4] F,8 | 
[V:5] D,6C,2 | 
[V:1] z4E4 | 
[V:2] z4A4 | 
[V:3] G4c4 | 
[V:4] D,4E,4 | 
[V:5] B,,4A,,4 | 
[V:1] D4F4- | 
[V:2] A4A4 | 
[V:3] d4d4 | 
[V:4] F,4D,4 | 
[V:5] D,,4D,,4 | 
[V:1] F2E2E4 | 
[V:2] A8 | 
[V:3] c8 | 
[V:4] E,8 | 
[V:5] A,,8 | 
[V:1] C4A,4 | 
[V:2] A4c4- | 
[V:3] z8 | 
[V:4] z8 | 
[V:5] z8 | 
[V:1] z4E4 | 
[V:2] c2B2c4 | 
[V:3] z8 | 
[V:4] z8 | 
[V:5] z8 | 
[V:1] F2G2A4 | 
[V:2] d2e2c2d2 | 
[V:3] z8 | 
[V:4] z8 | 
[V:5] z8 | 
[V:1] G2G4^F2 | 
[V:2] B3GA4 | 
[V:3] z8 | 
[V:4] z8 | 
[V:5] z8 | 
[V:1] G8 | 
[V:2] G8 | 
[V:3] d8 | 
[V:4] G,8 | 
[V:5] G,,8 | 
[V:1] z4G4 | 
[V:2] z4G4 | 
[V:3] e8 | 
[V:4] G,4G,4 | 
[V:5] C,4C,4 | 
[V:1] G4E4 | 
[V:2] G4G4 | 
[V:3] e8- | 
[V:4] E,8 | 
[V:5] C,8 | 
[V:1] C6D2 | 
[V:2] A6B2 | 
[V:3] e8 | 
[V:4] E,8 | 
[V:5] A,,8 | 
[V:1] E4D2B,2 | 
[V:2] c4B2d2- | 
[V:3] z8 | 
[V:4] z8 | 
[V:5] z8 | 
[V:1] D4C2E2- | 
[V:2] dcB2A4 | 
[V:3] z8 | 
[V:4] z8 | 
[V:5] z8 | 
[V:1] E2D2C2F2 | 
[V:2] G2F2A4 | 
[V:3] z8 | 
[V:4] z8 | 
[V:5] z8 | 
[V:1] G2E4D2 | 
[V:2] E2G2F4 | 
[V:3] z8 | 
[V:4] z8 | 
[V:5] z8 | 
[V:1] E4z4 | 
[V:2] E8 | 
[V:3] e6d2 | 
[V:4] A,6G,2 | 
[V:5] A,,8 | 
[V:1] E4F4 | 
[V:2] A8 | 
[V:3] c4d4 | 
[V:4] E,4D,4 | 
[V:5] A,,4D,,4 | 
[V:1] D4G4- | 
[V:2] G8 | 
[V:3] B8 | 
[V:4] D,4B,,4 | 
[V:5] G,,4G,,4 | 
[V:1] G2F2F4 | 
[V:2] z4A4 | 
[V:3] A8 | 
[V:4] D,8 | 
[V:5] D,,8 | 
[V:1] E4A4 | 
[V:2] c6d2 | 
[V:3] z8 | 
[V:4] z8 | 
[V:5] z8 | 
[V:1] G3FE2F2 | 
[V:2] e4c2d2- | 
[V:3] z8 | 
[V:4] z8 | 
[V:5] z8 | 
[V:1] E2D3CD2 | 
[V:2] dcB2A2B2 | 
[V:3] z8 | 
[V:4] z8 | 
[V:5] z8 | 
[V:1] E2C2B,4 | 
[V:2] c2A4^G2 | 
[V:3] z8 | 
[V:4] z8 | 
[V:5] z8 | 
[V:1] A,8 | 
[V:2] A4z2B2 | 
[V:3] A8 | 
[V:4] E,4F,4 | 
[V:5] A,,4D,4 | 
[V:1] z8 | 
[V:2] c4d4- | 
[V:3] A4G4 | 
[V:4] E,4D,4 | 
[V:5] C,4B,,4 | 
[V:1] E8 | 
[V:2] d4^c4 | 
[V:3] A8- | 
[V:4] E,4E,4 | 
[V:5] A,,4A,,4 | 
[V:1] F6D2 | 
[V:2] d6cB | 
[V:3] A8 | 
[V:4] D,8 | 
[V:5] D,,8 | 
[V:1] F4E4 | 
[V:2] A4G2c2 | 
[V:3] z8 | 
[V:4] z8 | 
[V:5] z8 | 
[V:1] D2C2E4 | 
[V:2] B2A4G2 | 
[V:3] z8 | 
[V:4] z8 | 
[V:5] z8 | 
[V:1] F2G2F2E2- | 
[V:2] A2E2D2G2- | 
[V:3] z8 | 
[V:4] z8 | 
[V:5] z8 | 
[V:1] E2D4^C2 | 
[V:2] G2F2E4 | 
[V:3] z8 | 
[V:4] z8 | 
[V:5] z8 | 
[V:1] D8 | 
[V:2] D4F4 | 
[V:3] A8 | 
[V:4] F,8 | 
[V:5] D,8 | 
[V:1] z8 | 
[V:2] G8 | 
[V:3] G4E4 | 
[V:4] E,4E,4- | 
[V:5] E,4C,4 | 
[V:1] D4D4 | 
[V:2] z8 | 
[V:3] G8 | 
[V:4] E,4D,4 | 
[V:5] B,,8 | 
[V:1] ^C4C4 | 
[V:2] A8 | 
[V:3] A8 | 
[V:4] E,8 | 
[V:5] A,,8 | 
[V:1] D4D4 | 
[V:2] B8 | 
[V:3] z8 | 
[V:4] z8 | 
[V:5] z8 | 
[V:1] E2F2G4- | 
[V:2] c6d2 | 
[V:3] z8 | 
[V:4] z8 | 
[V:5] z8 | 
[V:1] G2F2F4 | 
[V:2] e4d4 | 
[V:3] z8 | 
[V:4] z8 | 
[V:5] z8 | 
[V:1] D4E4- | 
[V:2] B4G4 | 
[V:3] z8 | 
[V:4] z8 | 
[V:5] z8 | 
[V:1] E2DCB,4 | 
[V:2] A4G2F2 | 
[V:3] z8 | 
[V:4] z8 | 
[V:5] z8 | 
[V:1] C6A,2 | 
[V:2] E4A4 | 
[V:3] z8 | 
[V:4] z8 | 
[V:5] z8 | 
[V:1] B,4A,2G,F, | 
[V:2] G4A4 | 
[V:3] z8 | 
[V:4] z8 | 
[V:5] z8 | 
[V:1] E,4A,4- | 
[V:2] c8 | 
[V:3] z8 | 
[V:4] z8 | 
[V:5] z8 | 
[V:1] A,2^G,2G,2^F,2 | 
[V:2] B8 | 
[V:3] z8 | 
[V:4] z8 | 
[V:5] z8 | 
[V:1] A,8 | 
[V:2] A8 | 
[V:3] z8 | 
[V:4] E,4E,4 | 
[V:5] A,,6G,,2 | 
[V:1] z8 | 
[V:2] z8 | 
[V:3] z8 | 
[V:4] D,4E,4 | 
[V:5] F,,4E,,4 | 
[V:1] z8 | 
[V:2] z8 | 
[V:3] z8 | 
[V:4] F,4A,4- | 
[V:5] A,,4C,4 | 
[V:1] z8 | 
[V:2] z8 | 
[V:3] z8 | 
[V:4] A,2G,2F,2E,2 | 
[V:5] B,,8 | 
[V:1] z8 | 
[V:2] z8 | 
[V:3] z8 | 
[V:4] A,4A,4 | 
[V:5] A,,4C,4- | 
[V:1] z8 | 
[V:2] z8 | 
[V:3] z8 | 
[V:4] G,4E,2F,2 | 
[V:5] C,2B,,2C,2D,2- | 
[V:1] z8 | 
[V:2] z8 | 
[V:3] z8 | 
[V:4] E,2G,4F,2 | 
[V:5] D,C,B,,2A,,4 | 
[V:1] z8 | 
[V:2] z8 | 
[V:3] z8 | 
[V:4] E,2D,2F,2E,2- | 
[V:5] G,,4A,,4 | 
[V:1] z8 | 
[V:2] z8 | 
[V:3] z8 | 
[V:4] E,D,D,4^C,2 | 
[V:5] F,,2D,,2E,,4 | 
[V:1] D6E2 | 
[V:2] A6G2 | 
[V:3] z8 | 
[V:4] D,8 | 
[V:5] D,,8 | 
[V:1] F4G4 | 
[V:2] A4E4 | 
[V:3] z8 | 
[V:4] z8 | 
[V:5] z8 | 
[V:1] E4A4- | 
[V:2] A4c4 | 
[V:3] z8 | 
[V:4] z8 | 
[V:5] z8 | 
[V:1] A2^G2G2^F2 | 
[V:2] B8 | 
[V:3] z8 | 
[V:4] z8 | 
[V:5] z8 | 
[V:1] A4A4 | 
[V:2] A4c4 | 
[V:3] z8 | 
[V:4] z8 | 
[V:5] z8 | 
[V:1] G2F2E4 | 
[V:2] B2d4c2 | 
[V:3] z8 | 
[V:4] z8 | 
[V:5] z8 | 
[V:1] D2C2D4 | 
[V:2] B2A2F2G2- | 
[V:3] z8 | 
[V:4] z8 | 
[V:5] z8 | 
[V:1] E4F2E2- | 
[V:2] G2A4G2 | 
[V:3] z8 | 
[V:4] z8 | 
[V:5] z8 | 
[V:1] E2D4^C2 | 
[V:2] A2F2E4 | 
[V:3] z8 | 
[V:4] z8 | 
[V:5] z8 | 
[V:1] D8 | 
[V:2] D6E2 | 
[V:3] z8 | 
[V:4] z8 | 
[V:5] z8 | 
[V:1] z4D4 | 
[V:2] F4G4 | 
[V:3] z8 | 
[V:4] z8 | 
[V:5] z8 | 
[V:1] D4C4 | 
[V:2] _B4A4 | 
[V:3] z8 | 
[V:4] z8 | 
[V:5] z8 | 
[V:1] B,4G,4 | 
[V:2] z4d4 | 
[V:3] z8 | 
[V:4] z8 | 
[V:5] z8 | 
[V:1] B,4E4- | 
[V:2] d4c4 | 
[V:3] z8 | 
[V:4] z8 | 
[V:5] z8 | 
[V:1] E2D2D4- | 
[V:2] B4G4 | 
[V:3] z8 | 
[V:4] z8 | 
[V:5] z8 | 
[V:1] D4G4 | 
[V:2] B4e4- | 
[V:3] z8 | 
[V:4] z8 | 
[V:5] z8 | 
[V:1] F4D4 | 
[V:2] e2d2d4- | 
[V:3] z8 | 
[V:4] z8 | 
[V:5] z8 | 
[V:1] F6E2 | 
[V:2] d4d4 | 
[V:3] z8 | 
[V:4] z8 | 
[V:5] z8 | 
[V:1] E8 | 
[V:2] c4A4 | 
[V:3] z8 | 
[V:4] z8 | 
[V:5] z8 | 
[V:1] z4A4- | 
[V:2] c8 | 
[V:3] z8 | 
[V:4] z8 | 
[V:5] z8 | 
[V:1] A4G4 | 
[V:2] B8 | 
[V:3] z8 | 
[V:4] z8 | 
[V:5] z8 | 
[V:1] F4E2E2- | 
[V:2] A8 | 
[V:3] z8 | 
[V:4] z8 | 
[V:5] z8 | 
[V:1] EDD4B,2 | 
[V:2] G4F2G2 | 
[V:3] z8 | 
[V:4] z8 | 
[V:5] z8 | 
[V:1] ^C3DEFG2 | 
[V:2] A4G2_B2 | 
[V:3] z8 | 
[V:4] z8 | 
[V:5] z8 | 
[V:1] F2A4G2 | 
[V:2] A2GFE4 | 
[V:3] z8 | 
[V:4] z8 | 
[V:5] z8 | 
[V:1] F4E2D2 | 
[V:2] D2A4F2 | 
[V:3] z8 | 
[V:4] z8 | 
[V:5] z8 | 
[V:1] E3CDCB,2 | 
[V:2] G2A2B2G2 | 
[V:3] z8 | 
[V:4] z8 | 
[V:5] z8 | 
[V:1] A,2C2D2E2 | 
[V:2] A3GF2E2 | 
[V:3] z8 | 
[V:4] z8 | 
[V:5] z8 | 
[V:1] A,2D4^C2 | 
[V:2] F4E4 | 
[V:3] z8 | 
[V:4] z8 | 
[V:5] z8 | 
[V:1] D8 | 
[V:2] D8 | 
[V:3] z8 | 
[V:4] z8 | 
[V:5] z8 | 
[V:1] z4D4 | 
[V:2] z8 | 
[V:3] G6F2 | 
[V:4] z8 | 
[V:5] z8 | 
[V:1] E4F4 | 
[V:2] z8 | 
[V:3] G4A4 | 
[V:4] z8 | 
[V:5] z8 | 
[V:1] E2C2D4 | 
[V:2] z8 | 
[V:3] G2c4B2 | 
[V:4] z8 | 
[V:5] z8 | 
[V:1] E6D2 | 
[V:2] z8 | 
[V:3] c4c4 | 
[V:4] z8 | 
[V:5] z8 | 
[V:1] E2F2G4 | 
[V:2] z8 | 
[V:3] c2d2B4 | 
[V:4] z8 | 
[V:5] z8 | 
[V:1] A4F4 | 
[V:2] z8 | 
[V:3] A8 | 
[V:4] z8 | 
[V:5] z8 | 
[V:1] E8 | 
[V:2] A6G2 | 
[V:3] z8 | 
[V:4] A,,6B,,2 | 
[V:5] z8 | 
[V:1] z8 | 
[V:2] A4B4 | 
[V:3] z8 | 
[V:4] C,4D,4 | 
[V:5] z8 | 
[V:1] z8 | 
[V:2] c4d2c2 | 
[V:3] z8 | 
[V:4] C,2F,4E,2 | 
[V:5] z8 | 
[V:1] z8 | 
[V:2] A6d2- | 
[V:3] z8 | 
[V:4] F,4F,4 | 
[V:5] z8 | 
[V:1] z8 | 
[V:2] d2B2^c4 | 
[V:3] z8 | 
[V:4] F,2G,2E,4 | 
[V:5] z8 | 
[V:1] F8 | 
[V:2] d8 | 
[V:3] A8 | 
[V:4] D,8 | 
[V:5] z8 | 
[V:1] E4E4- | 
[V:2] z8 | 
[V:3] A4G4 | 
[V:4] z8 | 
[V:5] z8 | 
[V:1] E2DCB,4 | 
[V:2] z8 | 
[V:3] E4G4 | 
[V:4] z8 | 
[V:5] z8 | 
[V:1] C4C2D2 | 
[V:2] z8 | 
[V:3] A4A2B2 | 
[V:4] z8 | 
[V:5] z8 | 
[V:1] E2C2B,4 | 
[V:2] z8 | 
[V:3] c2A4^G2 | 
[V:4] z8 | 
[V:5] z8 | 
[V:1] A,8 | 
[V:2] c8 | 
[V:3] A8 | 
[V:4] A,8 | 
[V:5] z8 | 
[V:1] z8 | 
[V:2] c4B4 | 
[V:3] z8 | 
[V:4] A,4G,4 | 
[V:5] z8 | 
[V:1] z8 | 
[V:2] G4A4 | 
[V:3] z8 | 
[V:4] E,4C,4 | 
[V:5] z8 | 
[V:1] z8 | 
[V:2] A4F2G2 | 
[V:3] z8 | 
[V:4] D,4D,2E,2 | 
[V:5] z8 | 
[V:1] z8 | 
[V:2] A2F2E4 | 
[V:3] z8 | 
[V:4] F,2D,4^C,2 | 
[V:5] z8 | 
[V:1] D6E2 | 
[V:2] D8 | 
[V:3] A8 | 
[V:4] D,8 | 
[V:5] z8 | 
[V:1] F4G4 | 
[V:2] z8 | 
[V:3] A4G4 | 
[V:4] z8 | 
[V:5] z8 | 
[V:1] A6G2 | 
[V:2] z8 | 
[V:3] c4d4 | 
[V:4] z8 | 
[V:5] z8 | 
[V:1] F4E4 | 
[V:2] z8 | 
[V:3] d4c4 | 
[V:4] z8 | 
[V:5] z8 | 
[V:1] D2F2E2G2- | 
[V:2] z8 | 
[V:3] d4e4- | 
[V:4] z8 | 
[V:5] z8 | 
[V:1] GFE2F2ED | 
[V:2] z8 | 
[V:3] e2c2d2cd | 
[V:4] z8 | 
[V:5] z8 | 
[V:1] C8 | 
[V:2] A6G2 | 
[V:3] e8 | 
[V:4] [A,,8A,8] | 
[V:5] z8 | 
[V:1] z8 | 
[V:2] F2D2E4 | 
[V:3] z8 | 
[V:4] D,4C,4 | 
[V:5] z8 | 
[V:1] z8 | 
[V:2] z2A2B3c | 
[V:3] z8 | 
[V:4] F,4G,4 | 
[V:5] z8 | 
[V:1] z8 | 
[V:2] d2e4dc | 
[V:3] z8 | 
[V:4] G,4F,4 | 
[V:5] z8 | 
[V:1] z8 | 
[V:2] B4A2c2- | 
[V:3] z8 | 
[V:4] G,4A,4 | 
[V:5] z8 | 
[V:1] z8 | 
[V:2] c2d2B4 | 
[V:3] z8 | 
[V:4] A,2F,2G,2F,G, | 
[V:5] z8 | 
[V:1] ^C8 | 
[V:2] A8 | 
[V:3] e8 | 
[V:4] A,8 | 
[V:5] z8 | 
[V:1] D4E4 | 
[V:2] z8 | 
[V:3] d4c4 | 
[V:4] z8 | 
[V:5] z8 | 
[V:1] F4G2E2- | 
[V:2] z8 | 
[V:3] d4e4 | 
[V:4] z8 | 
[V:5] z8 | 
[V:1] E2A4G2 | 
[V:2] z8 | 
[V:3] c2A2B4 | 
[V:4] z8 | 
[V:5] z8 | 
[V:1] A2GFE2D2 | 
[V:2] A6B2 | 
[V:3] A8 | 
[V:4] A,8 | 
[V:5] z8 | 
[V:1] E4D4 | 
[V:2] c4d4 | 
[V:3] z8 | 
[V:4] A,4B,4 | 
[V:5] z8 | 
[V:1] z8 | 
[V:2] d2e2c2e2- | 
[V:3] z8 | 
[V:4] G,4A,4 | 
[V:5] z8 | 
[V:1] z8 | 
[V:2] e2d4^c2 | 
[V:3] z8 | 
[V:4] F,2D,2E,4 | 
[V:5] z8 | 
[V:1] F6D2 | 
[V:2] d8 | 
[V:3] A6F2 | 
[V:4] D,8 | 
[V:5] z8 | 
[V:1] E3DE2F2 | 
[V:2] z8 | 
[V:3] G3FG2A2 | 
[V:4] z8 | 
[V:5] z8 | 
[V:1] G2E4D2 | 
[V:2] z8 | 
[V:3] E4F4 | 
[V:4] z8 | 
[V:5] z8 | 
[V:1] E4E4 | 
[V:2] z8 | 
[V:3] E8 | 
[V:4] E,6C,2 | 
[V:5] z8 | 
[V:1] F4E2E2- | 
[V:2] z8 | 
[V:3] z4G4 | 
[V:4] D,4C,4 | 
[V:5] z8 | 
[V:1] E2C2D2E2 | 
[V:2] z8 | 
[V:3] A4G4 | 
[V:4] A,,4B,,2C,2 | 
[V:5] z8 | 
[V:1] F2D4^C2 | 
[V:2] z8 | 
[V:3] F2A4G2 | 
[V:4] D,2F,2E,4 | 
[V:5] z8 | 
[V:1] D8 | 
[V:2] d8 | 
[V:3] A8 | 
[V:4] D,8- | 
[V:5] D,8- | 
[V:1] z4D4 | 
[V:2] d4d4 | 
[V:3] z8 | 
[V:4] D,8 | 
[V:5] D,8 | 
[V:1] D4G4- | 
[V:2] B8 | 
[V:3] G6F2 | 
[V:4] D,8- | 
[V:5] G,,6A,,2 | 
[V:1] G2F2E4 | 
[V:2] d4c4 | 
[V:3] G4A4 | 
[V:4] D,4A,,4 | 
[V:5] B,,4C,4 | 
[V:1] C4D4 | 
[V:2] c2G4F2 | 
[V:3] G2c4B2 | 
[V:4] z8 | 
[V:5] E,4D,4 | 
[V:1] E8 | 
[V:2] G4G4 | 
[V:3] c4c4 | 
[V:4] E,4G,4 | 
[V:5] C,6B,,2 | 
[V:1] z4D4 | 
[V:2] A4B4 | 
[V:3] c4B4 | 
[V:4] F,4D,4 | 
[V:5] A,,2F,,2G,,4 | 
[V:1] F6ED | 
[V:2] c8 | 
[V:3] A4A4 | 
[V:4] z4F,4- | 
[V:5] F,,8- | 
[V:1] C4B,4 | 
[V:2] A4B4 | 
[V:3] A4G4 | 
[V:4] F,4D,4 | 
[V:5] F,,4G,,4 | 
[V:1] A,4D4 | 
[V:2] c4G4 | 
[V:3] E4G4 | 
[V:4] C,4D,4 | 
[V:5] A,,4_B,,4 | 
[V:1] ^C2D2E4 | 
[V:2] z4c4 | 
[V:3] A4A4 | 
[V:4] E,8 | 
[V:5] A,,8 | 
[V:1] F8 | 
[V:2] d8 | 
[V:3] A4A4 | 
[V:4] D,4F,4 | 
[V:5] D,,8 | 
[V:1] G4E4 | 
[V:2] e8 | 
[V:3] G4c4 | 
[V:4] E,8 | 
[V:5] z4A,,4 | 
[V:1] F8 | 
[V:2] z4A4 | 
[V:3] d4d4 | 
[V:4] D,8 | 
[V:5] D,,8 | 
[V:1] E4D4 | 
[V:2] A6G2 | 
[V:3] c4d4 | 
[V:4] z8 | 
[V:5] A,,4B,,4 | 
[V:1] G6E2 | 
[V:2] G4c4- | 
[V:3] e4e4 | 
[V:4] z8 | 
[V:5] C,8- | 
[V:1] G4F4 | 
[V:2] c2B2A4 | 
[V:3] e4d4 | 
[V:4] z8 | 
[V:5] C,4D,4 | 
[V:1] E4z2F2 | 
[V:2] G4A3B | 
[V:3] c4d4 | 
[V:4] z8 | 
[V:5] E,4D,4 | 
[V:1] E2A3GG2- | 
[V:2] cde4e2 | 
[V:3] A2c2B4 | 
[V:4] z8 | 
[V:5] C,2A,,2E,4 | 
[V:1] GFF2E2F2- | 
[V:2] c2d2e2c2- | 
[V:3] A4A4 | 
[V:4] z8 | 
[V:5] F,2D,2C,2A,,2 | 
[V:1] FED4C2 | 
[V:2] c2A2A4 | 
[V:3] G2F2E4 | 
[V:4] z8 | 
[V:5] C,2D,2A,,4 | 
[V:1] D4A,4 | 
[V:2] A8 | 
[V:3] D4F4 | 
[V:4] D,8 | 
[V:5] D,,4D,4 | 
[V:1] z2C2D2CD | 
[V:2] z4B4 | 
[V:3] E4G4 | 
[V:4] E,4D,4 | 
[V:5] C,2A,,2B,,4 | 
[V:1] E2F2E2D2 | 
[V:2] c6B2 | 
[V:3] A4A4 | 
[V:4] C,4E,4 | 
[V:5] A,,6B,,2 | 
[V:1] E4D4- | 
[V:2] A4F4 | 
[V:3] z4A4 | 
[V:4] C,2E,2F,2G,2 | 
[V:5] C,4D,4 | 
[V:1] D2^C2C2B,2 | 
[V:2] E8 | 
[V:3] A8- | 
[V:4] A,3G,E,4 | 
[V:5] A,,8 | 
[V:1] D8 |]  
[V:2] D8 |]  
[V:3] A8 |]  
[V:4] ^F,8 & A,8 |]  
[V:5] D,,8 |]  



